domfk/img/social/inst.svg

<svg width="35" height="35" viewBox="0 0 35 35" fill="none" xmlns="http://www.w3.org/2000/svg">
<path d="M20.5005 4H15.4995C10.2615 4 6 8.2605 6 13.4975V18.0025C6 21.9025 8.3965 25.4075 12 26.835V29.7555C12 29.9535 12.1165 30.1325 12.2975 30.2125C12.3625 30.2415 12.4315 30.2555 12.5 30.2555C12.6215 30.2555 12.742 30.211 12.8355 30.126L15.735 27.5H20.5005C25.7385 27.5 30 23.2395 30 18.0025V13.4975C30 8.2605 25.7385 4 20.5005 4ZM29 18.0025C29 22.688 25.1875 26.5 20.5005 26.5H15.542C15.418 26.5 15.2985 26.546 15.2065 26.6295L13 28.628V26.4885C13 26.2765 12.8665 26.0875 12.6665 26.0175C9.2775 24.819 7 21.598 7 18.0025V13.4975C7 8.812 10.813 5 15.4995 5H20.5005C25.1875 5 29 8.812 29 13.4975V18.0025V18.0025Z" fill="#FFC844"/>
<path d="M24.6079 19.2466L21.5349 17.2506C21.1989 17.0321 20.7989 16.9581 20.4074 17.0391C20.0154 17.1216 19.6784 17.3531 19.4599 17.6906L19.3154 17.9126C17.9854 17.4731 16.5189 16.9116 15.6409 14.3701L16.0044 14.0541C16.6284 13.5116 16.6939 12.5626 16.1514 11.9376L13.7474 9.17208C13.5664 8.96358 13.2504 8.94208 13.0419 9.12258L11.5324 10.4346C10.2084 11.5856 10.8269 13.2881 11.0304 13.8476C11.0394 13.8726 11.0504 13.8966 11.0634 13.9201C11.1159 14.0141 12.3694 16.2511 14.3939 18.3131C16.4264 20.3836 20.0959 22.2956 20.2084 22.3511C20.6274 22.6231 21.0989 22.7536 21.5654 22.7536C22.3844 22.7536 23.1874 22.3521 23.6664 21.6161L24.7554 19.9391C24.9054 19.7066 24.8394 19.3971 24.6079 19.2466ZM22.8274 21.0711C22.3769 21.7651 21.4459 21.9621 20.7109 21.4881C20.6744 21.4691 17.0289 19.5706 15.1074 17.6131C13.3114 15.7836 12.1189 13.7511 11.9564 13.4676C11.5604 12.3571 11.6304 11.6746 12.1884 11.1896L13.3209 10.2056L15.3969 12.5936C15.5814 12.8056 15.5599 13.1156 15.3489 13.2991L14.7354 13.8321C14.5859 13.9621 14.5269 14.1676 14.5854 14.3566C15.6314 17.7556 17.6654 18.4231 19.1504 18.9106L19.3669 18.9821C19.5834 19.0551 19.8204 18.9716 19.9444 18.7806L20.2989 18.2346C20.3719 18.1216 20.4839 18.0451 20.6139 18.0176C20.7444 17.9896 20.8774 18.0156 20.9904 18.0891L23.6444 19.8126L22.8274 21.0711Z" fill="#FFC844"/>
<path d="M19.1413 12.1235C18.8753 12.047 18.5988 12.2015 18.5233 12.4675C18.4478 12.733 18.6018 13.0095 18.8673 13.085C19.6123 13.297 20.2058 13.8915 20.4158 14.637C20.4778 14.857 20.6783 15.0015 20.8968 15.0015C20.9418 15.0015 20.9873 14.9955 21.0328 14.983C21.2983 14.908 21.4533 14.632 21.3783 14.366C21.0748 13.289 20.2173 12.4295 19.1413 12.1235Z" fill="#FFC844"/>
<path d="M22.9467 15.1095C22.9917 15.1095 23.0372 15.1035 23.0827 15.091C23.3487 15.016 23.5032 14.7395 23.4282 14.474C22.8382 12.3825 21.1737 10.7145 19.0837 10.1195C18.8182 10.043 18.5417 10.1985 18.4662 10.464C18.3907 10.7295 18.5447 11.006 18.8102 11.0815C20.5687 11.5815 21.9692 12.986 22.4657 14.7455C22.5282 14.9655 22.7282 15.1095 22.9467 15.1095Z" fill="#FFC844"/>
<path d="M18.8679 7.79106C18.6019 7.71456 18.3254 7.86906 18.2499 8.13556C18.1744 8.40106 18.3284 8.67756 18.5939 8.75306C21.5734 9.60056 23.9469 11.9796 24.7879 14.9611C24.8499 15.1811 25.0504 15.3256 25.2689 15.3256C25.3139 15.3256 25.3594 15.3196 25.4049 15.3071C25.6704 15.2321 25.8254 14.9556 25.7504 14.6901C24.8159 11.3766 22.1789 8.73356 18.8679 7.79106Z" fill="#FFC844"/>
</svg>

<svg width="35" height="35" fill="none" xmlns="http://www.w3.org/2000/svg"><path d="M20.5 4h-5C10.26 4 6 8.26 6 13.498v4.505c0 3.9 2.396 7.404 6 8.832v2.92a.5.5 0 00.835.371l2.9-2.626H20.5c5.238 0 9.5-4.26 9.5-9.497v-4.505C30 8.26 25.738 4 20.5 4zM29 18.003c0 4.685-3.813 8.497-8.5 8.497h-4.958a.499.499 0 00-.335.13L13 28.628v-2.14a.499.499 0 00-.334-.47A8.515 8.515 0 017 18.002v-4.505C7 8.812 10.813 5 15.5 5h5c4.688 0 8.5 3.812 8.5 8.498v4.505z" fill="#FFC844"/><path d="M24.608 19.247l-3.073-1.996a1.497 1.497 0 00-2.075.44l-.145.222c-1.33-.44-2.796-1.001-3.674-3.543l.363-.316c.624-.542.69-1.491.147-2.116l-2.404-2.766a.5.5 0 00-.705-.05l-1.51 1.313c-1.324 1.15-.705 2.853-.502 3.413.01.025.02.049.033.072a22.847 22.847 0 003.33 4.393c2.033 2.07 5.703 3.983 5.815 4.038a2.503 2.503 0 003.458-.735l1.09-1.677a.501.501 0 00-.148-.692zm-1.78 1.824c-.451.694-1.382.891-2.117.417-.037-.019-3.682-1.917-5.604-3.875-1.796-1.83-2.988-3.862-3.15-4.145-.397-1.11-.327-1.793.231-2.278l1.133-.984 2.076 2.388a.495.495 0 01-.048.705l-.614.533a.5.5 0 00-.15.525c1.046 3.399 3.08 4.066 4.565 4.554l.217.071a.498.498 0 00.577-.201l.355-.546a.494.494 0 01.691-.146l2.654 1.724-.817 1.258zm-3.687-8.948a.499.499 0 10-.274.962 2.262 2.262 0 011.549 1.552.5.5 0 00.962-.271 3.269 3.269 0 00-2.237-2.242z" fill="#FFC844"/><path d="M22.947 15.11a.5.5 0 00.482-.636 6.35 6.35 0 00-4.345-4.354.5.5 0 10-.274.962 5.342 5.342 0 013.656 3.663.5.5 0 00.48.365z" fill="#FFC844"/><path d="M18.868 7.791a.5.5 0 10-.274.962 9.052 9.052 0 016.194 6.208.5.5 0 00.962-.27 10.06 10.06 0 00-6.882-6.9z" fill="#FFC844"/></svg>
